lib/brands/icons/confluence.svg

<svg xmlns="http://www.w3.org/2000/svg" fill="none" aria-hidden="true" viewBox="0 0 48 48"><g id="confluence-Icon"><g id="Confluence"><path id="Shape" fill="url(#paint0_linear_94_17360)" d="M9.16042 32.099C8.82946 32.6387 8.45777 33.2649 8.14209 33.7639C7.85953 34.2414 8.01122 34.8572 8.48323 35.1488L15.1024 39.2222C15.3347 39.3656 15.6149 39.4097 15.8801 39.3446C16.1453 39.2795 16.3732 39.1107 16.5127 38.8759C16.7775 38.433 17.1187 37.8576 17.4903 37.2415C20.1125 32.9136 22.75 33.4431 27.5056 35.714L34.0687 38.8352C34.3173 38.9535 34.6032 38.9661 34.8612 38.8702C35.1192 38.7743 35.3274 38.578 35.4384 38.326L38.5901 31.1977C38.8128 30.6886 38.5862 30.095 38.0809 29.8637C36.696 29.212 33.9414 27.9136 31.4618 26.7171C22.5412 22.3841 14.9598 22.6641 9.16042 32.099Z"/><path id="Shape_2" fill="url(#paint1_linear_94_17360)" d="M38.8393 15.9229C39.1703 15.3832 39.542 14.7569 39.8577 14.2579C40.1402 13.7804 39.9885 13.1646 39.5165 12.873L32.8974 8.79966C32.6631 8.6419 32.3739 8.58849 32.0988 8.65221C31.8236 8.71592 31.5873 8.89104 31.4463 9.13571C31.1815 9.57869 30.8404 10.154 30.4687 10.7701C27.8465 15.098 25.209 14.5685 20.4534 12.2976L13.9107 9.19172C13.6621 9.07341 13.3762 9.06078 13.1182 9.1567C12.8601 9.25262 12.6519 9.44893 12.541 9.70088L9.38929 16.8292C9.16661 17.3383 9.39319 17.9319 9.89845 18.1632C11.2834 18.8149 14.038 20.1133 16.5176 21.3098C25.4585 25.6377 33.04 25.3475 38.8393 15.9229Z"/></g></g><defs><linearGradient id="paint0_linear_94_17360" x1="49.9081" x2="42.4957" y1="36.3139" y2="19.3089" gradientUnits="userSpaceOnUse"><stop offset="0.18" stop-color="#0052CC"/><stop offset="1" stop-color="#2684FF"/></linearGradient><linearGradient id="paint1_linear_94_17360" x1="2521.57" x2="2435.27" y1="-24914.5" y2="-25309.4" gradientUnits="userSpaceOnUse"><stop offset="0.18" stop-color="#0052CC"/><stop offset="1" stop-color="#2684FF"/></linearGradient></defs></svg>

<svg xmlns="http://www.w3.org/2000/svg" fill="none" aria-hidden="true" viewBox="0 0 48 48"><path fill="url(#a)" d="M9.16 32.099c-.33.54-.702 1.166-1.018 1.665a1.018 1.018 0 0 0 .341 1.385l6.62 4.073a1.018 1.018 0 0 0 1.41-.346c.264-.443.606-1.018.977-1.634 2.623-4.328 5.26-3.799 10.016-1.528l6.563 3.121a1.019 1.019 0 0 0 1.37-.509l3.151-7.128a1.018 1.018 0 0 0-.51-1.334 799.79 799.79 0 0 1-6.618-3.147C22.542 22.384 14.96 22.664 9.16 32.1Z"/><path fill="url(#b)" d="M38.84 15.923c.33-.54.702-1.166 1.018-1.665a1.018 1.018 0 0 0-.341-1.385L32.897 8.8a1.018 1.018 0 0 0-1.45.336c-.265.443-.607 1.018-.978 1.634-2.623 4.328-5.26 3.799-10.016 1.528l-6.542-3.106a1.018 1.018 0 0 0-1.37.509l-3.152 7.128c-.222.51.004 1.103.51 1.334 1.384.652 4.139 1.95 6.619 3.147 8.94 4.328 16.522 4.038 22.321-5.387Z"/><defs><linearGradient id="a" x1="49.908" x2="42.496" y1="36.314" y2="19.309" gradientUnits="userSpaceOnUse"><stop offset=".18" stop-color="#0052CC"/><stop offset="1" stop-color="#2684FF"/></linearGradient><linearGradient id="b" x1="2521.57" x2="2435.27" y1="-24914.5" y2="-25309.4" gradientUnits="userSpaceOnUse"><stop offset=".18" stop-color="#0052CC"/><stop offset="1" stop-color="#2684FF"/></linearGradient></defs></svg>
